src/assets/Imgs/trash.svg

<svg fill="none" height="24" viewBox="0 0 24 24" width="24" xmlns="http://www.w3.org/2000/svg"><path clip-rule="evenodd" d="m21.0987 6.98485c-1.8835-.18664-3.7735-.32262-5.6649-.40612l-.1538-.90873c-.15-.92-.28-1.67-1.97-1.67h-2.62c-1.69 0-1.81.71-1.97 1.66l-.14583.86837c-1.21114.04873-2.42219.13424-3.63312.25652l-2.03855.19986c-.54965.05389-.95154.54315-.89766 1.0928.05389.54965.54315.95155 1.0928.89766l2.04-.2.00293-.00029c.01683-.0017.03366-.00339.05048-.00508l.60934 9.44006c.11 1.57.2 2.79 2.99 2.79h6.42001c2.79 0 2.88-1.22 2.99-2.79l.6081-9.42065c.6983.05481 1.396.11679 2.093.18586.5495.05446 1.0392-.34692 1.0937-.89651.0545-.5496-.3469-1.03928-.8965-1.09375zm-10.7686 8.76515c-.41424 0-.75002.3358-.75002.75s.33578.75.75002.75h3.33c.4142 0 .75-.3358.75-.75s-.3358-.75-.75-.75zm-1.5801-3.25c0-.4142.33579-.75.75-.75h5c.4142 0 .75.3358.75.75s-.3358.75-.75.75h-5c-.41421 0-.75-.3358-.75-.75z" fill="#ff7193" fill-rule="evenodd"/></svg>

<svg width="24" height="24" viewBox="0 0 24 24" fill="none" xmlns="http://www.w3.org/2000/svg">
<g id="trash">
<g id="trash_2">
<path id="Union" fill-rule="evenodd" clip-rule="evenodd" d="M21.0987 6.98485C19.2152 6.79821 17.3252 6.66223 15.4338 6.57873L15.28 5.67C15.13 4.75 15 4 13.31 4H10.69C9 4 8.88 4.71 8.72 5.66L8.57417 6.52837C7.36303 6.5771 6.15198 6.66261 4.94105 6.78489L2.9025 6.98475C2.35285 7.03864 1.95096 7.5279 2.00484 8.07755C2.05873 8.6272 2.54799 9.0291 3.09764 8.97521L5.13764 8.77521L5.13764 8.77521L5.14057 8.77492C5.1574 8.77322 5.17423 8.77153 5.19105 8.76984L5.80039 18.2099C5.91039 19.7799 6.00039 20.9999 8.79039 20.9999H15.2104C18.0004 20.9999 18.0904 19.7799 18.2004 18.2099L18.8085 8.78925C19.5068 8.84406 20.2045 8.90604 20.9015 8.97511C21.451 9.02957 21.9407 8.62819 21.9952 8.0786C22.0497 7.529 21.6483 7.03932 21.0987 6.98485ZM10.3301 15.75C9.91586 15.75 9.58008 16.0858 9.58008 16.5C9.58008 16.9142 9.91586 17.25 10.3301 17.25H13.6601C14.0743 17.25 14.4101 16.9142 14.4101 16.5C14.4101 16.0858 14.0743 15.75 13.6601 15.75H10.3301ZM8.75 12.5C8.75 12.0858 9.08579 11.75 9.5 11.75H14.5C14.9142 11.75 15.25 12.0858 15.25 12.5C15.25 12.9142 14.9142 13.25 14.5 13.25H9.5C9.08579 13.25 8.75 12.9142 8.75 12.5Z" fill="#FF7193"/>
</g>
</g>
</svg>
